X:488
T: DER MEISCHTER SCHICKT DER JOCKELE
N: E1745
O: Europa, Mitteleuropa, Deutschland; Frankreich, Elsass
R: Scherz -, Spiel - Lied, Zaehl - Geschichte
M: 2/4
L: 1/16
K: G
D2 | D2G2G2G2 | F2AAA2
A2 | B2B2d2B2 | A4A4 |
A2A2B2c2 | d4d4 | g8 | d8 |
B2BBA2A2 | G2F2G2

@@@ Tune index: 5172
